packages/icons/svg/Various_Administration_24px.svg

<svg xmlns="http://www.w3.org/2000/svg" viewBox="0 0 24 24"><path d="M21 20H3a1 1 0 000 2h18a1 1 0 000-2zM3 12h2v5h-.5a1 1 0 000 2h15a1 1 0 000-2H19v-5h2a1 1 0 00.93-.64 1 1 0 00-.27-1.11l-9-8a1 1 0 00-1.32 0l-9 8a1 1 0 00-.27 1.11A1 1 0 003 12zm4 5v-5h2v5zm4 0v-5h2v5zm6 0h-2v-5h2zM12 4.34L18.37 10H5.63z"/><circle cx="12" cy="7.5" r="1.5"/></svg>

<svg xmlns="http://www.w3.org/2000/svg" viewBox="0 0 24 24"><defs></defs><g id="Calque_5" ><path  d="M21,20H3a1,1,0,0,0,0,2H21a1,1,0,0,0,0-2Z"/><path  d="M3,12H5v5H4.5a1,1,0,0,0,0,2h15a1,1,0,0,0,0-2H19V12h2a1,1,0,0,0,.93-.64,1,1,0,0,0-.27-1.11l-9-8a1,1,0,0,0-1.32,0l-9,8a1,1,0,0,0-.27,1.11A1,1,0,0,0,3,12Zm4,5V12H9v5Zm4,0V12h2v5Zm6,0H15V12h2ZM12,4.34,18.37,10H5.63Z"/><circle  cx="12" cy="7.5" r="1.5"/></g></svg>
